X:72
T:Twas In The Moon of Wintertime
%%stretchlast false
M:4/4
L:1/4
K:Ab clef=C1
"^iii"[C,C] "^vi"[F,F] "^V"[E,G] "^vi²"[C,FA] | "^ii¹"[D,FB] "^vi²"[C,FA] "^iii"[C,EG]/ "^V²"[B,,EG]/ "^vi¹"[A,,CF] | "^iii"[C,E] "^vi+"[D,F] [D,F] "^iii"[C,EG] | [C,E]/ "^v"[B,,E]/ "^vi¹"[A,,CF]3 | "^iii"[C,C] "^vi"[F,F] "^V"[E,G] "^vi²"[C,FA] | "^ii¹"[D,FB] "^vi²"[C,FA] "^iii"[C,EG]/ "^V²"[B,,EG]/ "^vi¹"[A,,CF] | "^iii"[C,E] "^vi+"[D,F] [D,F] "^iii"[C,EG] | [C,E]/ "^v"[B,,E]/ "^vi¹"[A,,CF]3 | "^ii"[B,,DF]/ "^v"[B,,EF]/ "^vi¹"[A,,Fc] [A,,Fc]/ "^ii"[B,,Fc]/ "^iii"[C,EG] | "^vi²"[C,FA] "^ii¹"[D,FB]3/2 "^IV"[D,FA]/ "^V"[E,EG] | "^♯iii°"[D,EG] "^vi²"[C,FA] "^iii"[C,EG]/ "^V²"[B,,EG]/ "^vi¹"[A,,CF] | "^vi+"[D,DF] "^iii"[C,EG]3/2 "^IV²"[A,,DF]/ "^vi¹"[A,,CF] | "^iii²"[G,,CE]2 "^♯vii"[F,,A,] "^vi"[F,,C] | [F,,F,C] [F,,A,CF] [G,,A,CF] [G,,A,B,F] | [A,,G,A,E] "^♯iii"[A,,G,A,D] "^vi7"[F,,E,A,C]2 | [G,,F,CF] "^vi"[G,,F,CF] "^Imaj7"[A,,G,CE] "^iii²"[G,,E,C] | "^vi7¹"[A,,E,CF] [C,D,EF] "^vi²"[C,A,F] "^vi+"[D,G,FG] | "^vi²"[C,G,FA] [C,F,CB]/ "^ii"[C,F,B,B]/ "^vi"[F,,A,c] [F,,A,C]/ [F,,G,A,C]/ | [F,F]3 |]
